X:31
M:3/4
L:1/4
K:F
[Ac] | [A3/2c3/2] [G/B/] [FA] | [F3/2A3/2] [E/G/] [CF] | [DF] [CE] [B,D] | [A,2C2] [A,C] | [B,3/2C3/2] [B,/D/] [B,C] | [B,C] [B,G] [B,E] | [B,D] [A,C] [CF] | [F2A2] [Ac] | [A3/2c3/2] [G/B/] [FA] | ([F3/2A3/2] [E/G/]) [CF] | [DF] [CE] [B,D] | [A,2C2] [A,C] | [G3/2B3/2] [F/A/] [EG] | [FA] [CG] !sintro![CF] | [DG] [B,D] [CE] | [C2F2] !eintro!|]
